packages/gestalt-icons-android/vr-theme/ic_vr_bell_gestalt.svg

<svg width="24" height="24" viewBox="0 0 24 24" fill="none" xmlns="http://www.w3.org/2000/svg">
<path fill-rule="evenodd" clip-rule="evenodd" d="M16 19H24V17H23.6647C22.0754 17 20.7349 15.8166 20.5377 14.2396L19.7365 7.82963C19.2488 3.92794 15.9321 1 12 1C8.06795 1 4.75122 3.92794 4.26351 7.82963L3.46227 14.2396C3.26514 15.8166 1.92459 17 0.335338 17H0V19H8V20H8.02328C8.22125 21.6893 9.65756 23 11.4 23H12.6C14.3424 23 15.7787 21.6893 15.9767 20H16V19ZM12 3C9.07659 3 6.61067 5.17687 6.24807 8.0777L5.44682 14.4877C5.32868 15.4328 4.95928 16.2915 4.41072 17H19.5893C19.0407 16.2915 18.6713 15.4328 18.5532 14.4877L17.7519 8.0777C17.3893 5.17687 14.9234 3 12 3ZM13.4 19C13.7314 19 14 19.2686 14 19.6C14 20.3732 13.3732 21 12.6 21H11.4C10.6268 21 10 20.3732 10 19.6C10 19.2686 10.2686 19 10.6 19H13.4Z" fill="black"/>
</svg>

<svg xmlns="http://www.w3.org/2000/svg" width="24" height="24"><path d="M16 19h8v-2h-.34a3.15 3.15 0 0 1-3.12-2.76l-.8-6.41a7.8 7.8 0 0 0-15.48 0l-.8 6.41A3.15 3.15 0 0 1 .34 17H0v2h8v1h.02a3.4 3.4 0 0 0 3.38 3h1.2a3.4 3.4 0 0 0 3.38-3H16zm1.75-10.92.8 6.4c.12.95.5 1.81 1.04 2.52H4.4c.55-.7.92-1.57 1.04-2.51l.8-6.41a5.8 5.8 0 0 1 11.5 0M13.4 19c.33 0 .6.27.6.6 0 .77-.63 1.4-1.4 1.4h-1.2a1.4 1.4 0 0 1-1.4-1.4c0-.33.27-.6.6-.6z"/></svg>
